!!!!SEGMENT: Any3014-Lamour_de_moy_si_est_enclose--Second_livre_de_chansons.krn
!!!id: Any3014
!!!AGN: Chanson
!!!voices: 3
!!!COM: Anonymous
!!!SMS: Second livre de chansons
!!!OTL: L'amour de moy si est enclose (Second livre de chansons)
**kern	**kern	**kern
*part3	*part2	*part1
*staff3	*staff2	*staff1
*I"Tenor	*I"Superius II	*I"Superius I
*I'T	*I'S. II	*I'S. I
*clefGv2	*clefG2	*clefG2
*k[b-]	*k[b-]	*k[b-]
*F:	*F:	*F:
*M2/1	*M2/1	*M2/1
*met(C|)	*met(C|)	*met(C|)
=1	=1	=1
1c	0r	0r
2c	.	.
2c	.	.
=2	=2	=2
2F	0r	1cc
2F	.	.
1A	.	2cc
.	.	2cc
=3	=3	=3
1d	1r	1f
4c	1cc	2r
4B-y	.	.
4A	.	2f
4G	.	.
=4	=4	=4
4F	2cc	1a
4G	.	.
4A	2cc	.
4F	.	.
1B-y	2f	1dd
.	2f	.
=5	=5	=5
2A	1a	1.cc
4G	.	.
4F	.	.
1G	1dd	.
.	.	2b-y
=6	=6	=6
2r	1.cc	2a
2c	.	4g
.	.	4f
2c	.	1g
2G	2b-y	.
=7	=7	=7
1d	2a	2f
.	4g	1ff
.	4f	.
1c	1g	.
.	.	2ee
=8	=8	=8
2F	1f	1ff
2B-y	.	.
2A	1r	1r
2F	.	.
=9	=9	=9
4B-y	2r	1ff
4A	.	.
4B-y	2b-y	.
4c	.	.
1d	2a	2ff
.	2f	2ff
=10	=10	=10
2G	4b-y	1.gg
.	4a	.
2.g	4b-y	.
.	4cc	.
.	1dd	.
4f	.	.
2d	.	2ff
=11	=11	=11
2e	2g	1ee
2c	1cc	.
1g	.	1dd
.	2bnXi	.
=12	=12	=12
1c	2cc	1cc
.	2cc	.
2r	2dd	1r
2c	2ee	.
=13	=13	=13
2d	2ff	1r
2e	4ee	.
.	4dd	.
2.f	2cc	2r
.	2a	2cc
4e	.	.
=14	=14	=14
2d	2b-y	2dd
2c	1a	2ee
1B-y	.	2ff
.	2g	2dd
=15	=15	=15
2A	2a	2cc
2.B-y	4g	2.dd
.	4f	.
.	2g	.
4A	.	4cc
4G	[2f	4b-y
4F	.	4a
=16	=16	=16
1G	2f]	1b-y
.	2e	.
2F	1f	[1a
2f	.	.
=17	=17	=17
2f	2r	1a]
2f	2cc	.
1c	2cc	1r
.	2cc	.
=18	=18	=18
2r	1f	2r
2d	.	2ff
4d	2r	2ff
4c	.	.
4d	2f	2ff
4e	.	.
=19	=19	=19
2f	1a	1cc
1c	.	.
.	1dd	2r
2B-y	.	2ff
=20	=20	=20
1A	1.cc	2ff
.	.	4ee
.	.	4dd
1G	.	4ee
.	.	4ff
.	2b-y	[2gg
=21	=21	=21
1c	2a	2gg]
.	4g	1ff
.	4f	.
2c	1g	.
2c	.	2ee
=22	=22	=22
2F	1f	2ff
2F	.	2cc
1A	1r	2cc
.	.	2cc
=23	=23	=23
1d	1r	1f
4c	1cc	2r
4B-y	.	.
4A	.	2f
4G	.	.
=24	=24	=24
4F	2cc	1a
4G	.	.
4A	2cc	.
4F	.	.
1B-y	2f	1dd
.	2f	.
=25	=25	=25
2A	1a	1.cc
2F	.	.
1G	1dd	.
.	.	2b-y
=26	=26	=26
2r	1.cc	2a
2c	.	4g
.	.	4f
2c	.	1g
2G	2b-y	.
=27	=27	=27
1d	2a	2f
.	4g	1ff
.	4f	.
1c	1g	.
.	.	2ee
=28	=28	=28
00Fl	00fl	00ffl
==	==	==
*-	*-	*-
!!!system-decoration: [*]
!!!RDF**kern: i = editorial accidental
!!!RDF**kern: l = terminal long
!!!ENC: Benjamin Ory
!!!END: 2024/12/4
!!!EED: Benjamin Ory
!!!EEV: 2024/12/04
!!!YEC: Copyright 2024 Benjamin Ory, All Rights Reserved
!!!ONB: Translated from MusicXML on 2024/12/04
